apps/web/public/icons/dropdown/account.svg

<svg width="19" height="20" viewBox="0 0 19 20" fill="none" xmlns="http://www.w3.org/2000/svg">
<path fill-rule="evenodd" clip-rule="evenodd" d="M9.3451 19.9987L9.49998 20C9.29025 20 9.08057 19.9928 8.87129 19.9784C8.61229 19.9606 8.35409 19.9317 8.09733 19.8917C7.79905 19.8452 7.50304 19.7838 7.21031 19.7076C6.92176 19.6324 6.63674 19.5429 6.35621 19.4395L6.35465 19.4389C5.89267 19.2683 5.44401 19.0602 5.0127 18.8164C4.70659 18.6434 4.40975 18.4528 4.1235 18.2455C3.80161 18.0125 3.49363 17.7589 3.2013 17.4861C3.09917 17.3909 2.99898 17.2933 2.90081 17.1935C1.11221 15.3749 0 12.8242 0 9.99998C0 4.47717 4.25331 1.09873e-10 9.49998 1.09873e-10C10.7475 -6.15562e-06 11.9829 0.258646 13.1355 0.761189C14.2881 1.26373 15.3353 2.00032 16.2175 2.92891C17.0997 3.85749 17.7994 4.95988 18.2769 6.17314C18.7543 7.3864 19 8.68676 19 9.99998C19 12.8243 17.8877 15.3751 16.0991 17.1936C16.099 17.1937 16.099 17.1939 16.0991 17.1942C15.6491 17.6513 15.1576 18.0609 14.6316 18.417L14.6242 18.422C14.505 18.5026 14.3839 18.5804 14.2613 18.6553L14.2483 18.6632C14.0338 18.7937 13.8145 18.9154 13.5909 19.0279C13.5034 19.0718 13.4153 19.1144 13.3266 19.1556C13.2341 19.1984 13.141 19.2397 13.0473 19.2796C12.9564 19.318 12.8651 19.355 12.7732 19.3906C12.6803 19.4264 12.5869 19.4607 12.4931 19.4936C12.4008 19.5257 12.3081 19.5564 12.215 19.5856C12.1163 19.6165 12.0172 19.6457 11.9177 19.6733C11.8208 19.7 11.7235 19.7251 11.6259 19.7487C11.5285 19.772 11.4308 19.7938 11.3327 19.814C10.933 19.8963 10.5288 19.9513 10.1224 19.9789C10.0214 19.9857 9.92029 19.9909 9.81913 19.9945L9.81717 19.9945C9.65987 20 9.50247 20.0013 9.3451 19.9987ZM10.45 14H8.54999C7.03669 14 5.71318 14.9374 5.10475 16.3079L5.03595 16.474L5.09548 16.5203C6.1783 17.3322 7.47198 17.8528 8.87324 17.9732C8.91507 17.9768 8.95699 17.98 8.999 17.9829L8.87903 17.9736C8.91985 17.9771 8.96076 17.9803 9.00176 17.9831L8.999 17.9829C9.03961 17.9857 9.08029 17.9881 9.12102 17.9902L9.00176 17.9831C9.04407 17.986 9.08649 17.9885 9.12903 17.9906L9.12102 17.9902C9.15156 17.9918 9.18211 17.9932 9.21266 17.9944L9.49998 18L9.6191 17.999C9.6629 17.9983 9.70669 17.9973 9.75047 17.9958L9.63023 17.9988C9.67075 17.9981 9.7112 17.9971 9.75158 17.9957L9.75047 17.9957C9.79117 17.9943 9.83181 17.9926 9.87239 17.9906L9.75158 17.9957C9.79344 17.9942 9.83528 17.9924 9.87711 17.9903L9.87239 17.9906C9.91467 17.9884 9.95682 17.9859 9.99886 17.9831L9.87711 17.9903C9.91829 17.9882 9.95941 17.9857 10.0005 17.9829L9.99891 17.983C10.0401 17.9802 10.0811 17.9771 10.1221 17.9736L10.0004 17.9829C10.0423 17.98 10.0841 17.9768 10.1259 17.9733L10.1221 17.9736C10.1619 17.9702 10.2016 17.9664 10.2412 17.9624L10.1259 17.9733C10.1674 17.9697 10.2089 17.9658 10.2503 17.9615L10.2412 17.9624C11.5956 17.8244 12.8461 17.3122 13.898 16.5252L13.9631 16.474L13.8953 16.3081C13.3135 14.9971 12.0772 14.0823 10.6463 14.0053L10.45 14ZM9.49998 2.00001C5.30264 2.00001 1.90001 5.58173 1.90001 9.99998C1.90001 11.908 2.53454 13.66 3.59358 15.0348C4.57451 13.2221 6.42666 12 8.54999 12H10.45C12.5734 12 14.4256 13.2222 15.4063 15.0347C16.4654 13.66 17.1 11.908 17.1 9.99998C17.1 5.58173 13.6974 2.00001 9.49998 2.00001ZM9.49998 3C11.5987 3 13.3 4.79086 13.3 6.99998C13.3 9.14217 11.7002 10.8911 9.68964 10.9951L9.49998 11C7.40131 11 5.7 9.20915 5.7 6.99998C5.7 4.85779 7.29978 3.10889 9.31032 3.00487L9.49998 3ZM9.49998 5.00001C8.45064 5.00001 7.60001 5.89542 7.60001 6.99998C7.60001 8.10454 8.45064 8.99999 9.49998 8.99999C10.5493 8.99999 11.4 8.10454 11.4 6.99998C11.4 5.89542 10.5493 5.00001 9.49998 5.00001Z" fill="#DFDFDF"/>
</svg>

<svg xmlns="http://www.w3.org/2000/svg" width="19" height="20" fill="none" viewBox="0 0 19 20"><path fill="#dfdfdf" fill-rule="evenodd" d="M9.345 19.999 9.5 20a9.2 9.2 0 0 1-2.29-.292 9 9 0 0 1-.854-.268l-.001-.001a9.2 9.2 0 0 1-2.232-1.194 9.6 9.6 0 0 1-1.222-1.052C1.112 15.376 0 12.825 0 10 0 4.477 4.253 0 9.5 0a9.1 9.1 0 0 1 3.636.761 9.5 9.5 0 0 1 3.082 2.168 10 10 0 0 1 2.059 3.244C18.754 7.386 19 8.687 19 10c0 2.824-1.112 5.375-2.9 7.194q-.002 0 0 0-.677.687-1.468 1.223l-.008.005q-.179.12-.363.233l-.013.008a9.4 9.4 0 0 1-1.755.83 10 10 0 0 1-.867.256 9.036 9.036 0 0 1-1.807.246h-.002a9 9 0 0 1-.472.004M10.45 14h-1.9c-1.513 0-2.837.937-3.445 2.308l-.07.166.06.046A7.33 7.33 0 0 0 9 17.983l-.12-.01.123.01h-.003l.122.007-.12-.007.128.008h-.008l.092.003L9.5 18l.12-.001.13-.003-.12.003.122-.003H9.75l.122-.005-.12.005.125-.006h-.005l.127-.007-.122.007.123-.007H10l.123-.01-.122.01.126-.01h-.004l.12-.01-.116.01.124-.011h-.009a7.33 7.33 0 0 0 3.657-1.437l.065-.051-.068-.166c-.582-1.31-1.818-2.226-3.249-2.303zM9.5 2c-4.197 0-7.6 3.582-7.6 8a8.23 8.23 0 0 0 1.694 5.035C4.574 13.222 6.427 12 8.55 12h1.9c2.123 0 3.976 1.222 4.956 3.035A8.23 8.23 0 0 0 17.1 10c0-4.418-3.403-8-7.6-8m0 1c2.099 0 3.8 1.79 3.8 4 0 2.142-1.6 3.891-3.61 3.995L9.5 11c-2.099 0-3.8-1.79-3.8-4 0-2.142 1.6-3.891 3.61-3.995zm0 2c-1.05 0-1.9.895-1.9 2s.85 2 1.9 2 1.9-.895 1.9-2-.85-2-1.9-2" clip-rule="evenodd"/></svg>
